X:1
T:March On!
T:March On!
T:Joseph Lincoln Hall
T:Elsie Duncan Yale, 1917
T:Public Domain Courtesy of the Cyber Hymnal™
T:Public Domain Courtesy of the Cyber Hymnal™
C:Joseph Lincoln Hall
Z:Public Domain
Z:Courtesy of the Cyber Hymnal™
%%score ( 1 2 ) ( 3 4 )
L:1/8
Q:1/4=110
M:4/4
K:G
V:1 treble 
V:2 treble 
V:3 bass 
V:4 bass 
V:1
 D2 | ([B,G]2 (3[GBdg][GBdg][GBdg] [GBdg]2) [DG]2 | ([GB]2 (3[GBdg][GBdg][GBdg] [GBdg]2) [Gd]2 | %3
w: 1.~March|on, * * * * march|on, * * * * with|
w: 2.~March|on, * * * * march|on, * * * * our|
w: 3.~March|on, * * * * march|on, * * * * O|
 [Ge]2 [Gd]2 G2 [FA]2 | (z2 (3[GBdg][GBdg][GBdg] [GBdg]2) [DB]2 | %5
w: stead- fast heart and|* * * * strong!|
w: cap- tain leads the|* * * * way!|
w: fal- ter not nor|* * * * fear!|
 ([DA]2 (3[FAd][FAd][FAd] [FAd]2) [DB]2 | ([DA]2 (3[FAd][FAd][FAd] [FAd]2) [EG]2 | [DF]4 [^CE]4 | %8
w: March * * * * on,|march * * * * on,|with joy-|
w: March * * * * on,|march * * * * on,|His word|
w: March * * * * on,|march * * * * on,|our king|
 D6 [CD]2 | ([B,G]2 (3[GBdg][GBdg][GBdg] [GBdg]2) [DG]2 | %10
w: ous song!|Re- * * * * joice,|
w: o- bey!|Re- * * * * joice,|
w: is near!|Re- * * * * joice,|
 ([GB]2 (3[GBdg][GBdg][GBdg] [GBdg]2) [Gd]2 | [Ge]2 [Gd]2 G2 [FA]2 | %12
w: re- * * * * joice,|for vic- tory will|
w: re- * * * * joice,|in Him, the roy-|
w: re- * * * * joice,|soon war- fare will|
 (z2 (3[GBdg][GBdg][GBdg] [GBdg]2) [B,D]2 | [CE]2 [^DF]2 [EG]2 [FA]2 | %14
w: * * * * be|won! Let loy- al-|
w: * * * * al|Son! Then heed His|
w: * * * * be|done! To Him be|
 [GB]2 [Ge]2 !fermata![Gd]2 [DG]2 | [^CG]4 [=CA]4 | [B,G]2 |:"^Refrain" D2 E2 F2 | %18
w: ty the watch- word|be, march|on,|march on! *|
w: call, press for- ward|all, march|on,|march on! For|
w: true, our strength re-|new, march|on,|march on! For|
 (z2 [Bd]2) (z2 [Bd]2) | z2 [cd]2 (z2 [cd]2) | ^C2 D2 G2 B2 |1 [Gd]6 [Gd]2 | %22
w: ||||
w: ||* we are march-|ing, march-|
w: ||* we are march-|ing, march-|
 [Ge]2 [Gd]2 [GB]2 [Gd]2 | [Ge]2 [Gd]2 [GB]2 [Gd]2 | [GB]4 [GA]4 | [FA]2 :|2 [B,D]2 || %27
w: |||||
w: ing, ’neath the ban-|ner bright, Then for-|ward press,|His|name|
w: ing, val- iant in|His might; ~ ~|~ ~|~|~|
 [CE]2 [^DF]2 [EG]2 [FA]2 | [GB]2 [Ge]2 !fermata![Gd]2 [DG]2 | [^CG]4 [=CA]4 | [B,G]6 |] %31
w: ||||
w: con- fess, till vic-|tory’s won! * *|||
w: ~ ~ ~ ~|~ ~ Let loy-|al- ty|the|
V:2
 D2 | x8 | x8 | x4 G2 x2 | [GB]6 x2 | x8 | x8 | x8 | D6 x2 | x8 | x8 | x4 G2 x2 | [GB]6 x2 | x8 | %14
 x8 | x8 | x2 |: D2 E2 F2 | G4 F4 | E4 D4 | ^C2 D2 G2 B2 |1 x8 | x8 | x8 | x8 | x2 :|2 x2 || x8 | %28
 x8 | x8 | x6 |] %31
V:3
 D,2 | ([G,,G,]2 [G,,G,]2) [G,,G,]2 [G,B,]2 | ([G,D]2 [G,B,]2) [G,B,]2 [G,B,]2 | %3
 C2 [G,B,]2 [E,B,]2 [D,D]2 | [G,D]6 G,2 | ([F,A,]2 [F,,F,]2) [F,,F,]2 G,2 | %6
 ([F,A,]2 [F,,F,]2) [F,,F,]2 [E,B,]2 | A,4 [A,,G,]4 | (z2 [C,,C,]2 [B,,,C,]2) [A,,,A,,D,F,]2 | %9
 [G,,G,]2 [G,,G,]2 [G,,G,]2 [G,B,]2 | [G,D]2 [G,B,]2 [G,B,]2 [G,B,]2 | C2 [G,B,]2 [E,B,]2 [D,D]2 | %12
 [G,D]6 [G,,G,]2 | [C,G,]2 [B,,B,]2 [E,B,]2 [D,D]2 | [G,D]2 [C,C]2 !fermata![G,B,]2 [G,B,]2 | %15
 [E,A,]4 [D,F,]4 | [G,,G,]2 |: D,2 E,2 F,2 | G,4 F,4 | E,4 D,4 | ^C,2 D,2 G,2 B,2 |1 %21
 [G,B,]6 [G,B,]2 | C2 [B,D]2 [G,D]2 [B,D]2 | C2 [B,D]2 [G,D]2 [B,D]2 | [A,^C]4 [A,C]4 | [D,D]2 :|2 %26
 [G,,G,]2 || [C,G,]2 [B,,B,]2 [E,B,]2 [D,D]2 | [G,D]2 [C,C]2 !fermata![G,B,]2 [G,B,]2 | %29
 [E,A,]4 [D,F,]4 | [G,,G,]6 |] %31
V:4
 D,2 | x8 | x8 | C2 x6 | x6 G,2 | x6 G,2 | x8 | A,4 x4 | [D,F,]6 x2 | x8 | x8 | C2 x6 | x8 | x8 | %14
 x8 | x8 | x2 |: D,2 E,2 F,2 | G,4 F,4 | E,4 D,4 | ^C,2 D,2 G,2 B,2 |1 x8 | C2 x6 | C2 x6 | x8 | %25
 x2 :|2 x2 || x8 | x8 | x8 | x6 |] %31

